X:67
T:Farewell To Gurteen
R:Jig
S:Seamus Tansey (flute)
D:Clare FM broadcast. From the Miltown Malbay flute recital.
H:The transcription here is somewhat rationalised.
M:6/8
Z:Bernie Stocks
K:D
|: dAd ~f3 | dfd afa | daf d2f | e=ce ~g3 | dAd ~f3 | d2a {b}afd | ~A3 gfe | edc d3 :|
|: FGA FGA | d2f ecA | ~F3 ~A3 | FAF BAG | FGA FGA | d2f ecA | dfa ~g3 | Ace d3 :|
<end>
<start>
